X: 08083
T: NICK'S HORNPIPE
C: Bob McQuillen 16 Dec 91
B: Bob's Note Book 8 #83
%R: hornpipe, reel
Z: 2021 John Chambers <jc:trillian.mit.edu>
M: C
L: 1/8
K: D
fe \
| d2AF Adfd | BGBd A2AG | FAde fdfa | g2e2 egfe |\
| d2AF Adfd | Bdgf edcB | Adfa gecd | e2d2 d2 :|
|: de \
| fdAd fdBd | fafd A2AG | FAdf gfed | c2e2 e2de |\
| fdAd fdBd | fafd ABAG | FAdf geag | f2d2 d2 :|
%%begintext align
%% Nick Hawes, from
%% just across the Connecticut River in Brattleboro, VT, is
%% one of the most versatile musicians I know, playing
%% several instruments, and all of them well. I'm so glad
%% I finally got you a tune, Nick - Should have done it
%% long ago!
%%endtext

%%sep 1 1 500

%%sep 1 1 500

